X:1
T:(unknown title)
M:3/4
L:1/8
K:Bb
 G3/2- A/2| B4 A3/2 G/2| G2- D2 G3/2 A/2| B4 AG| G4 F3/2- G/2| A4 G3/2 F/2|\
 F2-C-DF-G| A3- BA-G| F4 G3/2 A/2| B4 A3/2- G/2| G2- D2G-A| B3- c A3/2 G/2|\
 G4 A2| B3- cd-f| g4 f2| d3- cd-g| G4||

